X:1
T:When I am laid in earth.
T:Purcell
%%score 1 { ( 2 4 ) | ( 3 5 6 ) }
L:1/8
Q:1/4=72
M:3/2
K:G
V:1 treble nm="Soprano" snm="S."
V:2 treble nm="Piano"
V:4 treble 
V:3 bass 
V:5 bass 
V:6 bass 
V:1
"^Adagio lamentoso""^Adagio lamentoso" z4 | z12 | z12 | z12 | z12 | E4 F4 G4 |: (G4 F4) ^G4 | %7
w: |||||When I am|la- id, am|
 (A3 G F3 E ^D3) E | ^D8 B3 c | (B3 A PG7) F | G8 c4 | (c2 F2) F4 B4 | (BE) E2 (F4 PE3) ^D | %13
w: la- * * * id in|earth, may my|wro- * ngs cre-|ate no|trou- * ble. no|trou- * ble in,- * thy|
 F8 z4 |1 z12 | E4 F4 G4 :|2 z8 z2 z B | B3 B B4 z4 || z8 z2 z B | B3 B B4 z4 | z8 B4 | %21
w: breast.||When I am|Re-|mem- ber me,|Re-|mem- ber me,|but|
 (A4 G4 A2 F2 | G3) A PA7 B | B8 z2 z B | e3 e e7 A | (Bc d4 c2 B4) | (A2 G2) G4 (F2 E2) | %27
w: ah!- * * *|* For- get my|fate. Re-|mem- ber me, but|ah!- * * * *|For- * get my- *|
 E8 z2 z B | B3 B B4 z4 | z8 z2 z B | B3 B B4 z2 z B | (A4 G4 A2 F2 | G3) A PA7 B | B8 z2 z B | %34
w: fate. Re-|mem- ber me,|re-|mem- ber me, but|ah!- * * *|* For- get my|fate. Re-|
 e3 e e7 A | (Bc d4 c2 B4) | (A2 G2) G4 (F2 E2) | E12 | z12 | z12 | z12 | z12 | z12 | z12 | z12 | %45
w: mem- ber me, but|ah!- * * * *|For- * get my- *|fate.||||||||
 z12 | z12 | z12 |] %48
w: |||
V:2
 z4 | z12 | z12 | z12 | z12 | [G,B,]8 [G,B,]4 |: [A,B,]8 B,4 | B,4 A,8 | [A,B,]8 [G,B,]4 | %9
 [F,C]4 [F,B,]8 | B,4 E4 E4 | F8 G2 F2 | E4 ^D4 E4 | [A,^D]8 [B,E]4 |1 [CE]4 P[B,^D]8 | E4 B,8 :|2 %16
 [CE]4 P[B,^D]8 | [B,E]8 [B,G]4 || (G4 F4) F4 | (F4 E4) A4 | (A4 G4) G4 | (F4 E4) F2 ^D2 | E4 F8 | %23
 F8 B4 | B4 A8 | A4 G8 | F2 E2 E4 ^D4 | E8 G4 | (G4 F4) F4 | (F4 E4) A4 | (A4 G4) G4 | %31
 (F4 E4) F2 ^D2 | E4 F8 | F8 B4 | B4 A8 | A4 G8 | F2 E2 E4 ^D4 | E8 G4 | (G4 F4) [FB]4 | %39
 (B4 ^A4) =A4 | A4 ^G4 e4 | (([Ge]4 [F^d]4)) [B=d]4 | (d4 ^c4) =c4 | (c4 B4) B4 | (B4 ^A4) =A4 | %45
 (A4 ^G4) =G4 | F4 PF7 E | E12 |] %48
V:3
 E,4 | ^D,8 =D,4 | ^C,8 =C,4 | B,,8 G,,4 | A,,4 B,,8 | [E,,E,]8 E,4 |: [^D,F,]8 [=D,F,]4 | %7
 [^C,E,]8 [=C,E,]4 | [B,,F,]8 [G,,E,]4 | x12 | E,,8 E,4 | [^D,F,]8 [=D,F,]4 | G,4 B,8 | %13
 [B,,F,]8 [G,,G,]4 |1 F,4 F,8 | G,4 F,4 E,4 :|2 F,4 F,8 | [E,,G,]8 [E,G,]4 || [^D,A,]8 [=D,F,]4 | %19
 [^C,G,]8 [=C,E,]4 | [B,,F,]8 [G,,E,]4 | F,4 G,4 F,4 | E,4 ^D,4 E,4 | F,8 F,4 | E,4 A,4 =C4 | %25
 F,4 B,8 | D,4 B,4 A,4 | G,8 G,4 | A,8 F,4 | G,4 A,2 G,2 F,2 E,2 | F,8 E,4 | F,4 G,4 F,4 | %32
 E,4 ^D,4 E,4 | F,8 F,4 | E,4 A,4 =C4 | F,4 B,8 | E,4 B,4 A,4 | [E,,G,]8 E,4 | ^D,8 =D,4 | %39
 ^C,8 =C,4 | B,,8 [G,,B,]4 | [A,,C]4 [B,,B,]4 B,,,4 | E,,8 [E,A,]4 | [^D,B,]8 [=D,B,]4 | %44
 [^C,E,]8 =C,4 | ^D8 B,4 | C4 B,7 B, | B,12 |] %48
V:4
 x4 | x12 | x12 | x12 | x12 | x12 |: x12 | E8 A,4 | x12 | x12 | E,8 [G,C]4 | [A,C]4 B,8 | B,4 A,8 | %13
 x12 |1 x12 | B,4 A,4 G,4 :|2 x12 | x12 || (B,4 C4) B,4 | E8 E4 | ^D8 E4 | C4 B,8 | B,4 C8 | %23
 B,8 F4 | G7 F E4 | F8 E4 | C4 B,8 | B,8 B,4 | B,8 B,4 | B,4 ^C2 ^D2 E4 | ^D8 E4 | C4 B,8 | %32
 B,4 C8 | B,8 F4 | G7 F E4 | F8 E4 | C4 B,8 | B,12 | x12 | (F4 E7) F | ^D8 =G4 | x12 | B7 B A3 G | %43
 F8 F4 | G7 F E4 | F8 E4 | E4 ^D7 E | x12 |] %48
V:5
 x4 | x12 | x12 | x12 | x12 | x12 |: x12 | x12 | x12 | E,8 ^D,4 | x12 | x12 | ^C,8 =C,4 | x12 |1 %14
 A,,4 B,,4 B,,,4 | E,,8 E,4 :|2 A,,4 B,,4 B,,,4 | x12 || x12 | x12 | x12 | A,,4 B,,4 B,,,4 | %22
 E,,8 E,4 | ^D,8 =D,4 | ^C,8 =C,4 | B,,8 G,,4 | A,,4 B,,4 B,,,4 | E,,8 E,4 | ^D,8 =D,4 | %29
 ^C,8 =C,4 | B,,8 G,,4 | A,,4 B,,4 B,,,4 | E,,8 E,4 | ^D,8 =D,4 | ^C,8 =C,4 | B,,8 G,,4 | %36
 A,,4 B,,4 B,,,4 | x12 | x12 | x12 | x12 | x12 | x12 | x12 | x12 | B,,8 G,,4 | A,,4 B,,4 B,,,4 | %47
 E,,12 |] %48
V:6
 x4 | x12 | x12 | x12 | x12 | x12 |: x12 | x12 | x12 | A,,4 B,,4 B,,,4 | x12 | x12 | x12 | x12 |1 %14
 x12 | x12 :|2 x12 | x12 || x12 | x12 | x12 | x12 | x12 | x12 | x12 | x12 | x12 | x12 | x12 | x12 | %30
 x12 | x12 | x12 | x12 | x12 | x12 | x12 | x12 | x12 | x12 | x12 | x12 | x12 | x12 | x12 | x12 | %46
 x12 | x12 |] %48

